!!!COM: Music21
!!!OTL: Terra de Melide
!!!OMV: pezas_valses_terra-de-melide_terra-de-melide-partitura.musicxml
**kern
*part1
*staff1
*I"Bagpipes
*I'Bag
*clefG^2
*k[]
*M3/4
=1
!LO:TX:a:t=Presto
2.cc
=
2ee
4gg
=
[2.gg
=
2.gg]
=
2.ee
=
2ff
4gg
=
[2.aa
=
2.aa]
=
2.ccc
=
2bb
12aaL
12bb
12aaJ
=
2gg
12aaL
12bb
12aaJ
=
2.gg
!!linebreak:original
=
2.aa
=
2gg
4ff
=
[2.bb
=
2.bb]
=||
*M3/4
!LO:TX:a:t=Presto
2.cc
=
2ee
4gg
=
[2.gg
=
2.gg]
=
2.ee
=
2ff
4gg
=
[2.aa
=
2.aa]
=
2.ccc
!!linebreak:original
=
2bb
12aaL
12bb
12aaJ
=
2gg
12aaL
12bb
12aaJ
=
2.gg
=
2.aa
=
2gg
4ff
=
[2.ee
=
4ee]
8ccL
8ddJ
8eeL
8ffJ
=||
8ggL
8aaJ
8ggL
8ffJ
[4gg
=
4gg]
4gg
4aa
=
4aa
8ggL
8ffJ
[4gg
!!linebreak:original
=
4gg]
4gg
4ccc
=
4ccc
8bbL
8aaJ
[4bb
=
4bb]
4aa
4bb
=
4aa
8ggL
8ffJ
[4gg
=
4gg]
8ccL
8ddJ
8eeL
8ffJ
=
8ggL
8aaJ
8ggL
8ffJ
[4gg
=
4gg]
4gg
4aa
=
4aa
8ggL
8ffJ
[4gg
=
4gg]
8ggL
8aaJ
8bbL
8cccJ
!!linebreak:original
=
8bbL
8cccJ
8bbL
8aaJ
4gg
.
=
[2.gg
.
.
.
.
.
=
2.gg_
=
4gg]
8ccL
8ddJ
8eeL
8ffJ
=||
8ggL
8aaJ
8ggL
8ffJ
[4gg
=
4gg]
4gg
4aa
=
4aa
8ggL
8ffJ
[4gg
=
4gg]
4gg
4ccc
!!pagebreak:original
=
4ccc
8bbL
8aaJ
[4bb
=
4bb]
4aa
4bb
=
4aa
8ggL
8ffJ
[4gg
=
4gg]
8ccL
8ddJ
8eeL
8ffJ
=
8ggL
8aaJ
8ggL
8ffJ
[4gg
=
4gg]
4gg
4aa
=
4aa
8ggL
8ffJ
[4gg
=
4gg]
8ggL
8aaJ
8bbL
8cccJ
!!linebreak:original
=
8bbL
8cccJ
8bbL
8aaJ
4gg
.
=||
2.gg
.
.
.
.
.
=
[2.cc
=
4cc]
2r
==
*-
!!!system-decoration: s1,s2
